sources/design/Outline/Ð.svg

<svg:svg xmlns:cc="http://creativecommons.org/ns#" xmlns:dc="http://purl.org/dc/elements/1.1/" xmlns:inkscape="http://www.inkscape.org/namespaces/inkscape" xmlns:rdf="http://www.w3.org/1999/02/22-rdf-syntax-ns#" xmlns:sodipodi="http://sodipodi.sourceforge.net/DTD/sodipodi-0.dtd" xmlns:svg="http://www.w3.org/2000/svg" xml:space="preserve" width="1000" height="1000" version="1.1" style="clip-rule:evenodd;fill-rule:evenodd;image-rendering:optimizeQuality;shape-rendering:geometricPrecision;text-rendering:geometricPrecision" viewBox="0 0 1000 1000" id="svg10" sodipodi:docname="Ð.svg" inkscape:version="1.1.1 (3bf5ae0d25, 2021-09-20)"><svg:metadata id="metadata14"><rdf:RDF><cc:Work rdf:about=""><dc:format>image/svg+xml</dc:format><dc:type rdf:resource="http://purl.org/dc/dcmitype/StillImage" /><dc:title /></cc:Work></rdf:RDF></svg:metadata><sodipodi:namedview pagecolor="#ffffff" bordercolor="#666666" borderopacity="1" objecttolerance="10" gridtolerance="10" guidetolerance="10" inkscape:pageopacity="0" inkscape:pageshadow="2" inkscape:window-width="1920" inkscape:window-height="1009" id="namedview12" showgrid="false" inkscape:zoom="0.84890884" inkscape:cx="169.04053" inkscape:cy="375.77651" inkscape:window-x="0" inkscape:window-y="60" inkscape:window-maximized="1" inkscape:current-layer="svg10" showguides="true" inkscape:guide-bbox="true" inkscape:document-rotation="0" inkscape:pagecheckerboard="0"><sodipodi:guide position="0,1000" orientation="0,1" id="guide16" inkscape:label="" inkscape:locked="true" inkscape:color="rgb(0,0,255)" /><sodipodi:guide position="1763.3122,2036.1693" orientation="1000,0" id="guide18" /><sodipodi:guide position="0,200" orientation="0,1" id="guide20" inkscape:label="base" inkscape:locked="true" inkscape:color="rgb(0,0,255)" /><inkscape:grid type="xygrid" id="grid24" originx="-473.37552" originy="-489.69235" /><sodipodi:guide position="0,0" orientation="0,1" id="guide34" inkscape:label="bottom" inkscape:locked="true" inkscape:color="rgb(0,0,255)" /><sodipodi:guide position="225.05109,1693.3186" orientation="0,1" id="guide44" inkscape:label="" inkscape:locked="false" inkscape:color="rgb(0,0,255)" /><sodipodi:guide position="0,900" orientation="0,1" id="guide46" inkscape:label="" inkscape:locked="true" inkscape:color="rgb(0,0,255)" /><sodipodi:guide position="552.56193,632.88128" orientation="1,0" id="guide841" inkscape:label="width" />    </sodipodi:namedview>
 <svg:defs id="defs4"><inkscape:path-effect effect="fillet_chamfer" id="path-effect858" is_visible="true" lpeversion="1" satellites_param="F,0,0,1,0,19.891689,0,1 @ F,0,0,1,0,0,0,1 @ F,0,0,1,0,0,0,1 @ F,0,0,1,0,0,0,1 @ F,0,0,1,0,0,0,1 @ F,0,0,1,0,0,0,1 @ F,0,0,1,0,0,0,1 @ F,0,0,1,0,0,0,1 @ F,0,0,1,0,0,0,1 @ F,0,0,1,0,0,0,1 @ F,0,0,1,0,13.267816,0,1 @ F,0,0,1,0,18.572198,0,1 @ F,0,0,1,0,0,0,1 @ F,0,0,1,0,0,0,1 @ F,0,0,1,0,0,0,1 @ F,0,0,1,0,0,0,1 @ F,0,0,1,0,0,0,1 @ F,0,0,1,0,0,0,1 @ F,0,0,1,0,0,0,1 @ F,0,0,1,0,24.300232,0,1 @ F,0,0,1,0,0,0,1 @ F,0,0,1,0,18.559737,0,1" unit="px" method="auto" mode="F" radius="0" chamfer_steps="1" flexible="false" use_knot_distance="true" apply_no_radius="true" apply_with_radius="true" only_selected="true" hide_knots="false" /><inkscape:path-effect effect="fillet_chamfer" id="path-effect857" is_visible="true" lpeversion="1" satellites_param="F,0,0,1,0,0,0,1 @ F,0,0,1,0,0,0,1 @ F,0,0,1,0,0,0,1 @ F,0,0,1,0,0,0,1 @ F,0,0,1,0,0,0,1 @ F,0,0,1,0,0,0,1 @ F,0,0,1,0,0,0,1 | F,0,0,1,0,15.591321,0,1 @ F,0,0,1,0,0,0,1 @ F,0,0,1,0,0,0,1 @ F,0,0,1,0,0,0,1 @ F,0,0,1,0,0,0,1 @ F,0,0,1,0,0,0,1 @ F,0,0,1,0,0,0,1 @ F,0,0,1,0,0,0,1 @ F,0,0,1,0,0,0,1 @ F,0,0,1,0,17.492779,0,1 @ F,0,0,1,0,0,0,1" unit="px" method="auto" mode="F" radius="0" chamfer_steps="1" flexible="false" use_knot_distance="true" apply_no_radius="true" apply_with_radius="true" only_selected="true" hide_knots="false" /><inkscape:path-effect effect="spiro" id="path-effect924" is_visible="true" lpeversion="1" /><inkscape:path-effect effect="spiro" id="path-effect902" is_visible="true" lpeversion="1" /><inkscape:path-effect effect="spiro" id="path-effect898" is_visible="true" lpeversion="1" /><inkscape:path-effect effect="spiro" id="path-effect879" is_visible="true" lpeversion="1" /><inkscape:path-effect effect="spiro" id="path-effect875" is_visible="true" lpeversion="1" /><inkscape:path-effect effect="spiro" id="path-effect853" is_visible="true" lpeversion="1" /><inkscape:path-effect effect="spiro" id="path-effect928" is_visible="true" lpeversion="1" /><inkscape:path-effect effect="spiro" id="path-effect921" is_visible="true" lpeversion="1" /><inkscape:path-effect effect="spiro" id="path-effect917" is_visible="true" lpeversion="1" /><inkscape:path-effect effect="spiro" id="path-effect849" is_visible="true" lpeversion="1" /><inkscape:path-effect effect="spiro" id="path-effect851" is_visible="true" lpeversion="1" />
  <svg:style type="text/css" id="style2">
   
    .fil0 {fill:#EF7F1A;fill-rule:nonzero}
   
  </svg:style>
 <inkscape:path-effect effect="spiro" id="path-effect1214" is_visible="true" lpeversion="1" /><inkscape:path-effect effect="spiro" id="path-effect1195" is_visible="true" lpeversion="1" /><inkscape:path-effect effect="spiro" id="path-effect992" is_visible="true" lpeversion="1" /><inkscape:path-effect effect="spiro" id="path-effect1060" is_visible="true" lpeversion="1" /><inkscape:path-effect effect="spiro" id="path-effect1047" is_visible="true" lpeversion="1" /><inkscape:path-effect effect="spiro" id="path-effect1085" is_visible="true" lpeversion="1" /><inkscape:path-effect effect="spiro" id="path-effect1286" is_visible="true" lpeversion="1" /><inkscape:path-effect effect="spiro" id="path-effect2489" is_visible="true" lpeversion="1" /><inkscape:path-effect effect="fillet_chamfer" id="path-effect25183" is_visible="true" lpeversion="1" satellites_param="F,0,0,1,0,15.486589,0,1 @ F,0,0,1,0,15.486589,0,1 @ F,0,0,1,0,14.179286,0,1 @ F,0,0,1,0,15.486589,0,1 @ F,0,0,1,0,15.486589,0,1 @ F,0,0,1,0,12.602861,0,1" unit="px" method="auto" mode="F" radius="0" chamfer_steps="1" flexible="false" use_knot_distance="true" apply_no_radius="true" apply_with_radius="true" only_selected="false" hide_knots="false" /></svg:defs>
 
<svg:g id="path922"><svg:path style="color:#000000;clip-rule:nonzero;fill:#1a5fb4;fill-rule:nonzero;stroke-linecap:round;stroke-linejoin:round;-inkscape-stroke:none;paint-order:fill stroke markers;shape-rendering:auto" d="M 134.9082,-25.769531 C 131.58818,-25.768583 128.25172,-25.397324 124.95312999999999,-24.617187 L 36.515625,-3.6992188 C 20.304469,0.13481336 7.8784591,12.37448 2.4863281,27.259766 C -21.6957,38.349937 -32.367423,62.350451 -26.1875,87.423828 L -2.3847656,184.0 C 0.2776960399999999,194.80222 8.7497608,207.02099 21.808594,211.80078 C 25.341428999999998,213.09387 28.922787,213.72574 32.453125,213.90039000000002 C 41.484398999999996,275.73403 46.951296,338.08733 48.537109,400.54883 C 51.683191,524.46569 40.040315,648.78595 13.964844,769.97266 C 7.7874433,798.68235 26.724995999999997,829.06952 56.730469,834.25586 C 125.76251,846.18781 196.93702,845.02233 265.55273,830.71289 C 301.5935,823.19679 337.89928,811.88681 371.88671999999997,793.74023 C 444.94223,754.73443 498.84927,688.2519 530.88477,614.44727 C 562.80256,540.9138 573.71024,461.06535 573.03711,383.36719 C 572.28439,296.48223 556.25665,203.73141 501.81836,129.0 C 470.09184,85.446691 427.34055,51.346114 379.89258,27.933594 C 332.51116,4.5539167 280.87711,-8.1331936 229.17969,-12.091797 C 208.72849,-13.657797 188.21017999999998,-13.760909 167.76758,-12.621094 C 158.74543,-20.682344 147.00852,-25.772989 134.90820000000002,-25.769531 L 134.9082,-25.769531 M 199.40233999999998,46.601562 C 207.81428999999997,46.714707000000004 216.21864999999997,47.09067 224.59960999999998,47.732422 C 269.57389,51.176217 313.77914999999996,62.217652 353.34375,81.740234 C 392.84179,101.22997000000001 427.96232,129.51468 453.32227,164.32812 C 496.97516,224.25363000000002 512.34855,304.18346 513.0390600000001,383.88867000000005 C 513.66007,455.57102000000003 503.4085400000001,527.05628 475.8457000000001,590.55664 C 448.4005700000001,653.78583 402.3506100000001,709.45681 343.6269500000001,740.81055 C 316.20679000000007,755.45072 285.40812000000005,765.28116 253.30273000000008,771.9765600000001 C 194.4740500000001,784.2449700000001 133.29408000000006,785.56182 73.90429700000007,776.1660200000001 C 100.02189,652.35224 111.72934,525.53108 108.51758,399.02734 C 106.72249,328.32297 100.1597,257.7681 89.1875,187.90625 C 104.76789,179.80791 121.07221,173.10127 137.80078,167.74414000000002 C 143.17116000000001,245.93128000000002 145.11579,324.35512000000006 143.57617,402.70898 C 141.52228,507.23533 133.30931999999999,611.64326 118.99413999999999,715.20508 A 30.003,30.003 0.0 0,0 146.31641,749.2167999999999 C 198.94377,753.4318799999999 252.29364999999999,743.3399999999999 299.74414,720.1914099999999 C 381.02354,680.5394799999999 439.94206,604.82477 465.42578000000003,519.6855499999999 C 484.89238,454.6490899999999 485.26228000000003,386.0788999999999 473.59766,321.1464799999999 C 467.71078,288.3765199999999 458.57294,255.10296999999989 443.12695,223.58593999999988 C 427.63671,191.9785999999999 405.75147000000004,162.35238999999987 376.42773,139.8437499999999 C 349.25583,118.98683999999989 317.62913,105.76026999999988 285.30078000000003,98.98437499999989 C 254.11536000000004,92.44802899999989 222.55079000000003,91.97095699999988 192.01758000000004,95.24023399999989 C 190.49856000000003,79.0856189999999 188.83480000000003,62.94535399999989 187.02734000000004,46.82031199999989 C 191.15306000000004,46.74986199999989 195.27806000000004,46.54608899999989 199.40234000000004,46.60156199999989 L 199.40233999999998,46.601562 M 127.24609,52.125 C 129.29140999999998,70.286658 131.17262,88.465913 132.84375,106.66602 C 114.22284,111.85919 96.01750200000001,118.44429 78.441406,126.48047 C 74.548354,106.67198 70.170992,86.963233 65.542969,67.3125 C 85.687872,60.705596 106.31284,55.568503 127.24609,52.125 M 234.97852,153.32031 C 247.91409000000002,153.70677 260.6495,155.122 272.99219,157.70898 C 297.60483,162.86769999999999 320.91639,172.87199999999999 339.89453,187.43945 C 360.38786,203.16995 377.10301,225.2047 389.25,249.99023 C 401.44125,274.86608 409.32586,302.71227 414.54297,331.75391 C 424.86041,389.18712000000005 424.12857,448.41342000000003 407.94531,502.48047 C 387.00026,572.45631 337.67934,634.92542 273.4375,666.26562 C 245.2998,679.99252 214.18517,687.99035 182.83008,689.75977 C 194.73663000000002,594.91787 201.68658000000002,499.45535 203.56445000000002,403.88672 C 205.19551,320.87922000000003 202.97941000000003,237.8035 197.02734,154.99609000000004 C 209.74827000000002,153.57661000000004 222.45814000000001,152.94626000000005 234.97852,153.32031000000003 L 234.97852,153.32031" id="path6576" /></svg:g><svg:g id="path2487"><svg:path style="color:#000000;fill:#1a5fb4;stroke-linecap:round;stroke-linejoin:round;-inkscape-stroke:none;paint-order:fill stroke markers;fill-rule:nonzero" d="M 298.58789,307.07617 C 295.59062,307.12757 292.58986000000004,307.50479 289.63477,308.23828 C 249.46685,318.20842 208.44779,324.79434 167.17773,327.90038999999996 C 159.3029,328.49305999999996 145.35685999999998,329.25949999999995 137.46483999999998,329.53319999999997 C 91.14731799999998,331.13953 44.66194899999998,328.37271 -1.1367187000000172,321.2793 C -11.478985000000018,319.67746 -26.512293000000017,322.05291 -36.289062000000015,333.72265999999996 C -46.065832000000015,345.39239999999995 -45.749783000000015,360.87093999999996 -42.222656000000015,370.80663999999996 L -15.623047000000014,445.73632999999995 C -7.347174800000014,469.04895999999997 16.574169999999988,481.24749999999995 39.984374999999986,475.47655999999995 C 89.80543099999998,463.19498999999996 141.77587999999997,459.2782399999999 192.875,463.95311999999996 C 200.36452,464.63831999999996 214.28298,466.35999 221.7207,467.51953 C 252.29807,472.28655 282.41474999999997,480.13854 311.42578,490.91015999999996 C 321.42087999999995,494.62127999999996 337.04393999999996,495.65376 349.46094,485.54686999999996 C 361.87793999999997,475.43998999999997 364.07185,459.46452999999997 362.23437,448.83203 L 344.05273,343.625 C 340.37296,322.33209 319.56881,306.7162 298.58789,307.07617 M 287.75,370.16211 L 296.89844,423.10352 C 275.25454,416.78281 253.24729,411.70852 230.96289,408.23437 C 221.49947999999998,406.75903 207.88640999999998,405.07633 198.34179999999998,404.20312 C 144.42693999999997,399.27064 89.84894799999998,402.89241000000004 37.01562499999997,414.66406 L 26.628906,385.40625 C 64.108157,389.42921 101.86681,390.80469 139.54297,389.49805 C 148.74638,389.17886999999996 162.49706,388.42352 171.67969,387.73242 C 210.74336,384.79242999999997 249.5419,378.79787 287.75,370.16211" id="path6582" /></svg:g></svg:svg>

<svg:svg xmlns:cc="http://creativecommons.org/ns#" xmlns:dc="http://purl.org/dc/elements/1.1/" xmlns:inkscape="http://www.inkscape.org/namespaces/inkscape" xmlns:rdf="http://www.w3.org/1999/02/22-rdf-syntax-ns#" xmlns:sodipodi="http://sodipodi.sourceforge.net/DTD/sodipodi-0.dtd" xmlns:svg="http://www.w3.org/2000/svg" xml:space="preserve" width="1000" height="1000" version="1.1" style="clip-rule:evenodd;fill-rule:evenodd;image-rendering:optimizeQuality;shape-rendering:geometricPrecision;text-rendering:geometricPrecision" viewBox="0 0 1000 1000" id="svg10" sodipodi:docname="Ð.svg" inkscape:version="1.1.1 (3bf5ae0d25, 2021-09-20)"><svg:metadata id="metadata14"><rdf:RDF><cc:Work rdf:about=""><dc:format>image/svg+xml</dc:format><dc:type rdf:resource="http://purl.org/dc/dcmitype/StillImage" /><dc:title /></cc:Work></rdf:RDF></svg:metadata><sodipodi:namedview pagecolor="#ffffff" bordercolor="#666666" borderopacity="1" objecttolerance="10" gridtolerance="10" guidetolerance="10" inkscape:pageopacity="0" inkscape:pageshadow="2" inkscape:window-width="1920" inkscape:window-height="1009" id="namedview12" showgrid="false" inkscape:zoom="0.84890884" inkscape:cx="169.04053" inkscape:cy="375.77651" inkscape:window-x="0" inkscape:window-y="60" inkscape:window-maximized="1" inkscape:current-layer="svg10" showguides="true" inkscape:guide-bbox="true" inkscape:document-rotation="0" inkscape:pagecheckerboard="0"><sodipodi:guide position="0,1000" orientation="0,1" id="guide16" inkscape:label="" inkscape:locked="true" inkscape:color="rgb(0,0,255)" /><sodipodi:guide position="1763.3122,2036.1693" orientation="1000,0" id="guide18" /><sodipodi:guide position="0,200" orientation="0,1" id="guide20" inkscape:label="base" inkscape:locked="true" inkscape:color="rgb(0,0,255)" /><inkscape:grid type="xygrid" id="grid24" originx="-473.37552" originy="-489.69235" /><sodipodi:guide position="0,0" orientation="0,1" id="guide34" inkscape:label="bottom" inkscape:locked="true" inkscape:color="rgb(0,0,255)" /><sodipodi:guide position="225.05109,1693.3186" orientation="0,1" id="guide44" inkscape:label="" inkscape:locked="false" inkscape:color="rgb(0,0,255)" /><sodipodi:guide position="0,900" orientation="0,1" id="guide46" inkscape:label="" inkscape:locked="true" inkscape:color="rgb(0,0,255)" /><sodipodi:guide position="552.56193,632.88128" orientation="1,0" id="guide841" inkscape:label="width" />    </sodipodi:namedview>
 <svg:defs id="defs4"><inkscape:path-effect effect="fillet_chamfer" id="path-effect858" is_visible="true" lpeversion="1" satellites_param="F,0,0,1,0,19.891689,0,1 @ F,0,0,1,0,0,0,1 @ F,0,0,1,0,0,0,1 @ F,0,0,1,0,0,0,1 @ F,0,0,1,0,0,0,1 @ F,0,0,1,0,0,0,1 @ F,0,0,1,0,0,0,1 @ F,0,0,1,0,0,0,1 @ F,0,0,1,0,0,0,1 @ F,0,0,1,0,0,0,1 @ F,0,0,1,0,13.267816,0,1 @ F,0,0,1,0,18.572198,0,1 @ F,0,0,1,0,0,0,1 @ F,0,0,1,0,0,0,1 @ F,0,0,1,0,0,0,1 @ F,0,0,1,0,0,0,1 @ F,0,0,1,0,0,0,1 @ F,0,0,1,0,0,0,1 @ F,0,0,1,0,0,0,1 @ F,0,0,1,0,24.300232,0,1 @ F,0,0,1,0,0,0,1 @ F,0,0,1,0,18.559737,0,1" unit="px" method="auto" mode="F" radius="0" chamfer_steps="1" flexible="false" use_knot_distance="true" apply_no_radius="true" apply_with_radius="true" only_selected="true" hide_knots="false" /><inkscape:path-effect effect="fillet_chamfer" id="path-effect857" is_visible="true" lpeversion="1" satellites_param="F,0,0,1,0,0,0,1 @ F,0,0,1,0,0,0,1 @ F,0,0,1,0,0,0,1 @ F,0,0,1,0,0,0,1 @ F,0,0,1,0,0,0,1 @ F,0,0,1,0,0,0,1 @ F,0,0,1,0,0,0,1 | F,0,0,1,0,15.591321,0,1 @ F,0,0,1,0,0,0,1 @ F,0,0,1,0,0,0,1 @ F,0,0,1,0,0,0,1 @ F,0,0,1,0,0,0,1 @ F,0,0,1,0,0,0,1 @ F,0,0,1,0,0,0,1 @ F,0,0,1,0,0,0,1 @ F,0,0,1,0,0,0,1 @ F,0,0,1,0,17.492779,0,1 @ F,0,0,1,0,0,0,1" unit="px" method="auto" mode="F" radius="0" chamfer_steps="1" flexible="false" use_knot_distance="true" apply_no_radius="true" apply_with_radius="true" only_selected="true" hide_knots="false" /><inkscape:path-effect effect="spiro" id="path-effect924" is_visible="true" lpeversion="1" /><inkscape:path-effect effect="spiro" id="path-effect902" is_visible="true" lpeversion="1" /><inkscape:path-effect effect="spiro" id="path-effect898" is_visible="true" lpeversion="1" /><inkscape:path-effect effect="spiro" id="path-effect879" is_visible="true" lpeversion="1" /><inkscape:path-effect effect="spiro" id="path-effect875" is_visible="true" lpeversion="1" /><inkscape:path-effect effect="spiro" id="path-effect853" is_visible="true" lpeversion="1" /><inkscape:path-effect effect="spiro" id="path-effect928" is_visible="true" lpeversion="1" /><inkscape:path-effect effect="spiro" id="path-effect921" is_visible="true" lpeversion="1" /><inkscape:path-effect effect="spiro" id="path-effect917" is_visible="true" lpeversion="1" /><inkscape:path-effect effect="spiro" id="path-effect849" is_visible="true" lpeversion="1" /><inkscape:path-effect effect="spiro" id="path-effect851" is_visible="true" lpeversion="1" />
  <svg:style type="text/css" id="style2">
   
    .fil0 {fill:#EF7F1A;fill-rule:nonzero}
   
  </svg:style>
 <inkscape:path-effect effect="spiro" id="path-effect1214" is_visible="true" lpeversion="1" /><inkscape:path-effect effect="spiro" id="path-effect1195" is_visible="true" lpeversion="1" /><inkscape:path-effect effect="spiro" id="path-effect992" is_visible="true" lpeversion="1" /><inkscape:path-effect effect="spiro" id="path-effect1060" is_visible="true" lpeversion="1" /><inkscape:path-effect effect="spiro" id="path-effect1047" is_visible="true" lpeversion="1" /><inkscape:path-effect effect="spiro" id="path-effect1085" is_visible="true" lpeversion="1" /><inkscape:path-effect effect="spiro" id="path-effect1286" is_visible="true" lpeversion="1" /><inkscape:path-effect effect="spiro" id="path-effect2489" is_visible="true" lpeversion="1" /><inkscape:path-effect effect="fillet_chamfer" id="path-effect25183" is_visible="true" lpeversion="1" satellites_param="F,0,0,1,0,15.486589,0,1 @ F,0,0,1,0,15.486589,0,1 @ F,0,0,1,0,14.179286,0,1 @ F,0,0,1,0,15.486589,0,1 @ F,0,0,1,0,15.486589,0,1 @ F,0,0,1,0,12.602861,0,1" unit="px" method="auto" mode="F" radius="0" chamfer_steps="1" flexible="false" use_knot_distance="true" apply_no_radius="true" apply_with_radius="true" only_selected="false" hide_knots="false" /></svg:defs>
 
<svg:g id="path922"><svg:path style="color:#000000;clip-rule:nonzero;fill:#1a5fb4;fill-rule:nonzero;stroke-linecap:round;stroke-linejoin:round;-inkscape-stroke:none;shape-rendering:auto" d="m 134.9082,-25.769531 c -3.32002,9.48e-4 -6.65648,0.372207 -9.95507,1.152344 L 36.515625,-3.6992188 C 20.304469,0.13481336 7.8784591,12.37448 2.4863281,27.259766 -21.6957,38.349937 -32.367423,62.350451 -26.1875,87.423828 L -2.3847656,184 c 2.66246164,10.80222 11.1345264,23.02099 24.1933596,27.80078 3.532835,1.29309 7.114193,1.92496 10.644531,2.09961 9.031274,61.83364 14.498171,124.18694 16.083984,186.64844 3.146082,123.91686 -8.496794,248.23712 -34.572265,369.42383 -6.1774007,28.70969 12.760152,59.09686 42.765625,64.2832 69.032041,11.93195 140.206551,10.76647 208.822261,-3.54297 36.04077,-7.5161 72.34655,-18.82608 106.33399,-36.97266 C 444.94223,754.73443 498.84927,688.2519 530.88477,614.44727 562.80256,540.9138 573.71024,461.06535 573.03711,383.36719 572.28439,296.48223 556.25665,203.73141 501.81836,129 470.09184,85.446691 427.34055,51.346114 379.89258,27.933594 332.51116,4.5539167 280.87711,-8.1331936 229.17969,-12.091797 c -20.4512,-1.566 -40.96951,-1.669112 -61.41211,-0.529297 -9.02215,-8.06125 -20.75906,-13.151895 -32.85938,-13.148437 z m 64.49414,72.371093 c 8.41195,0.113145 16.81631,0.489108 25.19727,1.13086 44.97428,3.443795 89.17954,14.48523 128.74414,34.007812 39.49804,19.489736 74.61857,47.774446 99.97852,82.587886 43.65289,59.92551 59.02628,139.85534 59.71679,219.56055 0.62101,71.68235 -9.63052,143.16761 -37.19336,206.66797 -27.44513,63.22919 -73.49509,118.90017 -132.21875,150.25391 -27.42016,14.64017 -58.21883,24.47061 -90.32422,31.16601 -58.82868,12.26841 -120.00865,13.58526 -179.398433,4.18946 C 100.02189,652.35224 111.72934,525.53108 108.51758,399.02734 106.72249,328.32297 100.1597,257.7681 89.1875,187.90625 c 15.58039,-8.09834 31.88471,-14.80498 48.61328,-20.16211 5.37038,78.18714 7.31501,156.61098 5.77539,234.96484 -2.05389,104.52635 -10.26685,208.93428 -24.58203,312.4961 a 30.003,30.003 0 0 0 27.32227,34.01172 c 52.62736,4.21508 105.97724,-5.8768 153.42773,-29.02539 81.2794,-39.65193 140.19792,-115.36664 165.68164,-200.50586 19.4666,-65.03646 19.8365,-133.60665 8.17188,-198.53907 -5.88688,-32.76996 -15.02472,-66.04351 -30.47071,-97.56054 -15.49024,-31.60734 -37.37548,-61.23355 -66.69922,-83.74219 -27.1719,-20.85691 -58.7986,-34.08348 -91.12695,-40.859375 -31.18542,-6.536346 -62.74999,-7.013418 -93.2832,-3.744141 -1.51902,-16.154615 -3.18278,-32.29488 -4.99024,-48.419922 4.12572,-0.07045 8.25072,-0.274223 12.375,-0.21875 z M 127.24609,52.125 c 2.04532,18.161658 3.92653,36.340913 5.59766,54.54102 -18.62091,5.19317 -36.826248,11.77827 -54.402344,19.81445 C 74.548354,106.67198 70.170992,86.963233 65.542969,67.3125 85.687872,60.705596 106.31284,55.568503 127.24609,52.125 Z m 107.73243,101.19531 c 12.93557,0.38646 25.67098,1.80169 38.01367,4.38867 24.61264,5.15872 47.9242,15.16302 66.90234,29.73047 20.49333,15.7305 37.20848,37.76525 49.35547,62.55078 12.19125,24.87585 20.07586,52.72204 25.29297,81.76368 10.31744,57.43321 9.5856,116.65951 -6.59766,170.72656 -20.94505,69.97584 -70.26597,132.44495 -134.50781,163.78515 -28.1377,13.7269 -59.25233,21.72473 -90.60742,23.49415 11.90655,-94.8419 18.8565,-190.30442 20.73437,-285.87305 1.63106,-83.0075 -0.58504,-166.08322 -6.53711,-248.89063 12.72093,-1.41948 25.4308,-2.04983 37.95118,-1.67578 z" id="path6564" /></svg:g><svg:g id="path2487"><svg:path style="color:#000000;fill:#1a5fb4;stroke-linecap:round;stroke-linejoin:round;-inkscape-stroke:none;fill-rule:nonzero" d="m 298.58789,307.07617 c -2.99727,0.0514 -5.99803,0.42862 -8.95312,1.16211 -40.16792,9.97014 -81.18698,16.55606 -122.45704,19.66211 -7.87483,0.59267 -21.82087,1.35911 -29.71289,1.63281 -46.317522,1.60633 -92.802891,-1.16049 -138.6015587,-8.2539 -10.3422663,-1.60184 -25.3755743,0.77361 -35.1523433,12.44336 -9.77677,11.66974 -9.460721,27.14828 -5.933594,37.08398 l 26.599609,74.92969 c 8.2758722,23.31263 32.197217,35.51117 55.607422,29.74023 49.821056,-12.28157 101.791505,-16.19832 152.890625,-11.52344 7.48952,0.6852 21.40798,2.40687 28.8457,3.56641 30.57737,4.76702 60.69405,12.61901 89.70508,23.39063 9.9951,3.71112 25.61816,4.7436 38.03516,-5.36329 12.417,-10.10688 14.61091,-26.08234 12.77343,-36.71484 L 344.05273,343.625 c -3.67977,-21.29291 -24.48392,-36.9088 -45.46484,-36.54883 z m -10.83789,63.08594 9.14844,52.94141 c -21.6439,-6.32071 -43.65115,-11.395 -65.93555,-14.86915 -9.46341,-1.47534 -23.07648,-3.15804 -32.62109,-4.03125 -53.91486,-4.93248 -108.492852,-1.31071 -161.326175,10.46094 L 26.628906,385.40625 c 37.479251,4.02296 75.237904,5.39844 112.914064,4.0918 9.20341,-0.31918 22.95409,-1.07453 32.13672,-1.76563 39.06367,-2.93999 77.86221,-8.93455 116.07031,-17.57031 z" id="path6570" /></svg:g></svg:svg>
